X:9897
T:Lord Vincents Hornpipe. JC.132
M:C|
L:1/8
Q:180
S:John Clare,Poet,Helpston. (1793-1864)
R:Hornpipe
O:England
A:Northamptonshire
N:MR. bar 2in MS the slur and the 3 making the 3 qu's equal a crot are
N:misssing.Bar 11, the single qu in the Ms is given as a crot.
N:b6 is apparently missin
Z:P Headford
K:Bb
fe|f2B2B2dB|c2((3BAG)F2FF|DFdF GecA|B2B2B2gf|!
e2c2c2gf|Acfa abge|f2f2f2:|!
|:fe|dBAB dBAd|GEDE GEDE|cded edcB|BAcA F2fg|!
fBAB gBAB|aBAB bBAB|GBce dBcA|B2B2B2:|]
W:Spot the missing bar.


